src/dark/hiso font dark_p15-left arrow reversed.svg

<svg xmlns="http://www.w3.org/2000/svg" width="126" height="126" viewBox="0 0 126 126"><path fill="#000101" d="M0 63l36 54 18-9 18 9 36-18v-36l-36-18v-18l-72 36zm39 37.5l11.64 5.82-11.64 5.83v-11.65zm-34.62-36.34l31.62-15.81v14.65l36 18v32.65l-36-18v15.94l-31.62-47.43z"/></svg>

<svg xmlns="http://www.w3.org/2000/svg" width="126" height="126"><path fill="#000101" d="M0 63l36 54 18-9 18 9 36-18V63L72 45V27L0 63zm39 37.5l11.64 5.82L39 112.15V100.5zM4.38 64.16L36 48.35V63l36 18v32.65l-36-18v15.94L4.38 64.16z"/></svg>
